X:22
T: Menyecske, menyecske
O: Lészped (Bákó), 1932
Q: 1/8=126
L:1/4
K:Ab
c/(c//B///A///)A/ | cc/ | c/ z/ |
A/A/B/ | B A/ | A z |
B/A/F/ | F A/ | B |
B/A/F/ | F G/ | F | 

